X:31
T: Boys Of The Mill, The
R: jig
M: 6/8
L: 1/8
K:Gmaj
F2 A d3|E2 G c3|BAG EGA|Bdc B2 A|
F2 A d3|E2 G c3|BAG EcB|AFE D3:|
F2 A F2 A|E2 G E2 G|G2 B G2 B|dcB A3|
F2 A F2 A|E2 G E2 G|BAG EcB|AFE D3:|

